packages/icons/svg/Fill/mic-off.svg

<svg fill="none" height="24" viewBox="0 0 24 24" width="24" xmlns="http://www.w3.org/2000/svg"><path clip-rule="evenodd" d="m15.5791 12.751c.261-.531.421-1.12.421-1.751v-5c0-2.206-1.794-4-4-4-1.948 0-3.57003 1.401-3.92403 3.248zm3.4209-1.7509c0-.552-.447-1-1-1s-1 .448-1 1c0 .909-.262 1.75-.688 2.484l1.463 1.463c.772-1.124 1.225-2.483 1.225-3.947zm-6.9147 3.9916c-.0279.0041-.056.0082-.0853.0082-2.20599 0-3.99999-1.794-3.99999-4v-.172l4.15599 4.156c-.0238.001-.0471.0044-.0707.0078zm8.6217 4.3012-16.00001-15.99996c-.391-.391-1.023-.391-1.414 0-.391.39099-.391 1.02299 0 1.41399l16.00001 15.99997c.195.195.451.293.707.293s.512-.098.707-.293c.391-.391.391-1.023 0-1.414zm-7.707.7072h2c.55 0 1 .45 1 1s-.45 1-1 1h-5.99999c-.55 0-1-.45-1-1s.45-1 1-1h1.99999v-2.08c-3.38699-.488-5.99999-3.4-5.99999-6.92 0-.552.447-1 1-1s1 .448 1 1c0 2.757 2.243 5 4.99999 5 .362 0 .714-.043 1.055-.117l1.593 1.593c-.521.214-1.075.36-1.648.443z" fill="#6b7280" fill-rule="evenodd"/></svg>

<svg width="24" height="24" viewBox="0 0 24 24" fill="none" xmlns="http://www.w3.org/2000/svg">
<g id="Icon/Fill/mic-off">
<path id="Mask" fill-rule="evenodd" clip-rule="evenodd" d="M15.5791 12.751C15.8401 12.22 16.0001 11.631 16.0001 11V6C16.0001 3.794 14.2061 2 12.0001 2C10.0521 2 8.43011 3.401 8.07611 5.248L15.5791 12.751ZM19 11C19 10.448 18.553 10 18 10C17.447 10 17 10.448 17 11C17 11.909 16.738 12.75 16.312 13.484L17.775 14.947C18.547 13.823 19 12.464 19 11ZM12.0853 14.9918C12.0574 14.9959 12.0293 15 12 15C9.79401 15 8.00001 13.206 8.00001 11V10.828L12.156 14.984C12.1322 14.9849 12.1089 14.9883 12.0853 14.9918ZM20.707 19.293L4.70701 3.293C4.31601 2.902 3.68401 2.902 3.29301 3.293C2.90201 3.684 2.90201 4.316 3.29301 4.707L19.293 20.707C19.488 20.902 19.744 21 20 21C20.256 21 20.512 20.902 20.707 20.707C21.098 20.316 21.098 19.684 20.707 19.293ZM13 20H15C15.55 20 16 20.45 16 21C16 21.55 15.55 22 15 22H9.00001C8.45001 22 8.00001 21.55 8.00001 21C8.00001 20.45 8.45001 20 9.00001 20H11V17.92C7.61301 17.432 5.00001 14.52 5.00001 11C5.00001 10.448 5.44701 10 6.00001 10C6.55301 10 7.00001 10.448 7.00001 11C7.00001 13.757 9.24301 16 12 16C12.362 16 12.714 15.957 13.055 15.883L14.648 17.476C14.127 17.69 13.573 17.836 13 17.919V20Z" fill="#000000"/>
</g>
</svg>
